svgs/sharp-regular/rectangle-barcode.svg

<svg xmlns="http://www.w3.org/2000/svg" viewBox="0 0 576 512"><!--! Font Awesome Pro 6.6.0 by @fontawesome - https://fontawesome.com License - https://fontawesome.com/license (Commercial License) Copyright 2024 Fonticons, Inc. --><path d="M48 80l0 352 480 0 0-352L48 80zM0 32l48 0 480 0 48 0 0 48 0 352 0 48-48 0L48 480 0 480l0-48L0 80 0 32zm144 96l0 256-48 0 0-256 48 0zm64 0l0 256-32 0 0-256 32 0zm32 0l48 0 0 256-48 0 0-256zm160 0l0 256-48 0 0-256 48 0zm48 0l32 0 0 256-32 0 0-256z"/></svg>

<svg xmlns="http://www.w3.org/2000/svg" viewBox="0 0 576 512"><!--! Font Awesome Pro 6.5.2 by @fontawesome - https://fontawesome.com License - https://fontawesome.com/license (Commercial License) Copyright 2024 Fonticons, Inc. --><path d="M48 80V432H528V80H48zM0 32H48 528h48V80 432v48H528 48 0V432 80 32zm144 96V384H96V128h48zm64 0V384H176V128h32zm32 0h48V384H240V128zm160 0V384H352V128h48zm48 0h32V384H448V128z"/></svg>
